X:380
T: Absage (107a), S.259
N: T0269
O: Luxemburg
S: Singendes Volk, Esch-Alzette 1937 posth.]
N: Reuland, fff Katharina Prim, 1906
R: Liebeslieder]
M: 4/4
L: 1/8
K: C
CE | G2G2A2B2 | c4G2
cc | B2d2c2e2 | d4z2
GG | e2d2c2B2 | A4G2
GG | A2f2e2d2 | e4z2
GG | e2d2c2B2 | A4G2
GG | A2c2B2d2 | c4z2

@@@ Tune index: 8434
